public/assets/tracks/security.svg

<svg fill="none" height="130" viewBox="0 0 131 130" width="131" xmlns="http://www.w3.org/2000/svg"><path d="m110.556 21.5693-43.139-14.70114c-.5205-.17773-1.2188-.2666-1.917-.2666s-1.3965.08887-1.917.2666l-43.1387 14.70114c-1.0537.3555-1.917 1.5743-1.917 2.6914v61.2422c0 1.1172.7237 2.5899 1.5997 3.2881l43.7607 34.1c.4443.342 1.0156.52 1.5996.52s1.168-.178 1.5996-.52l43.7611-34.1c.876-.6855 1.599-2.1582 1.599-3.2881v-61.2422c.026-1.1171-.838-2.3232-1.891-2.6914zm-7.224 61.4961-37.832 29.4786-37.832-29.4786v-54.2851l37.832-12.8985 37.832 12.8985zm-51.6826-15.9326-9.8389 9.8389c-.189.1909-.295.4486-.295.7173 0 .2686.106.5264.295.7172l4.3165 4.3165c.3935.3935 1.041.3935 1.4345 0l9.8389-9.8389c7.0713 4.456 16.5166 3.6055 22.6738-2.5518 7.1475-7.1474 7.1475-18.7256 0-25.873-7.1474-7.1475-18.7256-7.1475-25.873 0-6.1573 6.1572-7.0078 15.6152-2.5518 22.6738zm8.3027-16.9228c3.9737-3.9737 10.4102-3.9737 14.3711 0 3.9737 3.9736 3.9737 10.4101 0 14.3711-3.9736 3.9736-10.4101 3.9736-14.3711 0-3.9609-3.9737-3.9736-10.3975 0-14.3711z" fill="#fff"/></svg>

<svg xmlns="http://www.w3.org/2000/svg" width="131" height="130" fill="none" viewBox="0 0 131 130"><path fill="#fff" d="M110.556 21.5693L67.417 6.86816C66.8965 6.69043 66.1982 6.60156 65.5 6.60156C64.8018 6.60156 64.1035 6.69043 63.583 6.86816L20.4443 21.5693C19.3906 21.9248 18.5273 23.1436 18.5273 24.2607V85.5029C18.5273 86.6201 19.251 88.0928 20.127 88.791L63.8877 122.891C64.332 123.233 64.9033 123.411 65.4873 123.411C66.0713 123.411 66.6553 123.233 67.0869 122.891L110.848 88.791C111.724 88.1055 112.447 86.6328 112.447 85.5029V24.2607C112.473 23.1436 111.609 21.9375 110.556 21.5693ZM103.332 83.0654L65.5 112.544L27.668 83.0654V28.7803L65.5 15.8818L103.332 28.7803V83.0654ZM51.6494 67.1328L41.8105 76.9717C41.6215 77.1626 41.5155 77.4203 41.5155 77.689C41.5155 77.9576 41.6215 78.2154 41.8105 78.4062L46.127 82.7227C46.5205 83.1162 47.168 83.1162 47.5615 82.7227L57.4004 72.8838C64.4717 77.3398 73.917 76.4893 80.0742 70.332C87.2217 63.1846 87.2217 51.6064 80.0742 44.459C72.9268 37.3115 61.3486 37.3115 54.2012 44.459C48.0439 50.6162 47.1934 60.0742 51.6494 67.1328ZM59.9521 50.21C63.9258 46.2363 70.3623 46.2363 74.3232 50.21C78.2969 54.1836 78.2969 60.6201 74.3232 64.5811C70.3496 68.5547 63.9131 68.5547 59.9521 64.5811C55.9912 60.6074 55.9785 54.1836 59.9521 50.21Z"/></svg>
